icons/bhi_layout.svg

<svg xmlns="http://www.w3.org/2000/svg" viewBox="0 0 512 512" enable-background="new 0 0 512 512"><path fill="none" d="M-8880.9-3204.2h9258v7438.2h-9258zM-8880.9-3204.2h9258v7438.2h-9258zM-8880.9-3204.2h9258v7438.2h-9258z"/><path fill="#010101" d="M288 288v191.1h192v-191.1h-192zm-256 191.1h192v-191.1h-192v191.1zm0-447.1v192h192v-192h-192zm334.4-23.2l-137.9 137.7 137.9 137.9 137.9-137.9-137.9-137.7z"/></svg>

<?xml version="1.0" encoding="utf-8"?>
<!-- Generator: Adobe Illustrator 19.2.0, SVG Export Plug-In . SVG Version: 6.00 Build 0)  -->
<svg version="1.1" id="Layer_1" xmlns="http://www.w3.org/2000/svg" xmlns:xlink="http://www.w3.org/1999/xlink" x="0px" y="0px"
	 viewBox="0 0 512 512" enable-background="new 0 0 512 512" xml:space="preserve">
<rect x="-8880.9" y="-3204.2" fill="none" width="9258" height="7438.2"/>
<rect x="-8880.9" y="-3204.2" fill="none" width="9258" height="7438.2"/>
<rect x="-8880.9" y="-3204.2" fill="none" width="9258" height="7438.2"/>
<path fill="#010101" d="M288,288v191.1h192V288H288z M32,479.1h192V288H32V479.1z M32,32v192h192V32H32z M366.4,8.8L228.5,146.5
	l137.9,137.9l137.9-137.9L366.4,8.8z"/>
</svg>
